X:50
T:Pride of Petravore
Z: id:dc-hornpipe-45
M:C|
L:1/8
K:E Minor
B,|E3F G3A|BcBA G2E2|D^CDE FEFG|ABAG FDDF|!
EDEF GFGA|BcBA GEFA|BABc BAFG|Eeee e3:|!
B|e2e2 e2ge|dBGA B3c|B2FE FGAB|AGED EFGB|!
cdef gfge|dBGA B2GA|BABc BAFG|Eeee e3:|!

